packages/core/src/svgs/dust.svg

<svg width="24" height="24" viewBox="0 0 24 24" fill="none" xmlns="http://www.w3.org/2000/svg">
<g clip-path="url(#clip0_31_9597)">
<path d="M0 0H24V24H0V0Z" fill="#F0F3FA"/>
<path d="M9.85693 4.71436H12.4284V7.28578H9.85693V4.71436Z" fill="black"/>
<path d="M7.71436 5.57129H11.1429V8.14272H7.71436V5.57129Z" fill="black"/>
<path d="M6.85693 6.85693H10.2855V8.99979H6.85693V6.85693Z" fill="black"/>
<path d="M5.57129 8.57129H8.99986V11.1427H5.57129V8.57129Z" fill="black"/>
<path d="M8.57129 9.85693H12.4284V11.1426H8.57129V9.85693Z" fill="black"/>
<path d="M8.57122 10.7144H11.1426V12.0001H8.57122V10.7144ZM6.85693 10.7144H8.14265V14.1429H6.85693V10.7144Z" fill="black"/>
<path d="M5.57129 12H7.28557V13.2857H5.57129V12ZM7.71415 12.8571H8.99986V17.1429H7.71415V12.8571Z" fill="black"/>
<path d="M8.57129 15.0001H9.857V18.4286H8.57129V15.0001ZM9.857 13.7144H11.1427V19.7144H9.857V13.7144Z" fill="black"/>
<path d="M10.7144 12.8572H13.2858V14.1429H10.7144V12.8572ZM10.7144 15.0001H12.4286V16.2858H10.7144V15.0001ZM10.7144 16.7144H13.2858V19.7144H10.7144V16.7144ZM14.1429 4.71436H11.5715V7.28578H14.1429V4.71436Z" fill="black"/>
<path d="M16.2855 5.57129H12.8569V8.14272H16.2855V5.57129Z" fill="black"/>
<path d="M17.1429 6.85693H13.7144V8.99979H17.1429V6.85693Z" fill="black"/>
<path d="M18.4286 8.57129H15V11.1427H18.4286V8.57129Z" fill="black"/>
<path d="M15.4284 9.85693H11.5713V11.1426H15.4284V9.85693Z" fill="black"/>
<path d="M15.4284 10.7144H12.8569V12.0001H15.4284V10.7144ZM17.1426 10.7144H15.8569V14.1429H17.1426V10.7144Z" fill="black"/>
<path d="M18.4286 12H16.7143V13.2857H18.4286V12ZM16.2857 12.8571H15V17.1429H16.2857V12.8571Z" fill="black"/>
<path d="M15.4284 15.0001H14.1426V18.4286H15.4284V15.0001ZM14.1426 13.7144H12.8569V19.7144H14.1426V13.7144Z" fill="black"/>
<path d="M13.2856 15H11.5713V16.2857H13.2856V15Z" fill="black"/>
</g>
<defs>
<clipPath id="clip0_31_9597">
<rect width="24" height="24" fill="white"/>
</clipPath>
</defs>
</svg>

<svg xmlns="http://www.w3.org/2000/svg" width="24" height="24" fill="none" viewBox="0 0 24 24"><g clip-path="url(#a)"><path fill="#F0F3FA" d="M0 0h24v24H0z"/><path fill="#000" d="M9.857 4.714h2.571v2.572H9.857z"/><path fill="#000" d="M7.714 5.571h3.429v2.572H7.714z"/><path fill="#000" d="M6.857 6.857h3.429V9h-3.43z"/><path fill="#000" d="M5.571 8.571H9v2.572H5.57z"/><path fill="#000" d="M8.571 9.857h3.857v1.286H8.571z"/><path fill="#000" d="M8.571 10.714h2.572V12H8.57zm-1.714 0h1.286v3.429H6.857z"/><path fill="#000" d="M5.571 12h1.715v1.286H5.57zm2.143.857H9v4.286H7.714z"/><path fill="#000" d="M8.571 15h1.286v3.429H8.571zm1.286-1.286h1.286v6H9.857z"/><path fill="#000" d="M10.714 12.857h2.572v1.286h-2.572zm0 2.143h1.715v1.286h-1.715zm0 1.714h2.572v3h-2.572zm3.429-12H11.57v2.572h2.572z"/><path fill="#000" d="M16.285 5.571h-3.428v2.572h3.428z"/><path fill="#000" d="M17.143 6.857h-3.429V9h3.429z"/><path fill="#000" d="M18.429 8.571H15v2.572h3.429z"/><path fill="#000" d="M15.428 9.857h-3.857v1.286h3.857z"/><path fill="#000" d="M15.428 10.714h-2.571V12h2.571zm1.715 0h-1.286v3.429h1.286z"/><path fill="#000" d="M18.429 12h-1.715v1.286h1.715zm-2.143.857H15v4.286h1.286z"/><path fill="#000" d="M15.428 15h-1.285v3.429h1.285zm-1.285-1.286h-1.286v6h1.286z"/><path fill="#000" d="M13.286 15H11.57v1.286h1.715z"/></g><defs><clipPath id="a"><path fill="#fff" d="M0 0h24v24H0z"/></clipPath></defs></svg>
